X: 112
T:The Cup of Tea
M:C|
L:1/8
R:reel
Z:Barney
K:Edor
BAGF GE ~E2| GEBE GE ~E2 | BAGF GE  ~E2|(3FED AD FDD2|
BAGF GE ~E2| GEBE GEEF |G2 GF GABc| dBAG FD(3DDD|
BAGF GE ~E2| GEBE GEEB| zA GF GE  ~E2| (3FED AD FD D2|
BAGF GE ~E2| =CD EC B,3 F-|G2 GF GABc| dBAG FD(3DDD||:
d2 (3efg fdec| dfeg fB ~B2| d2 (3efg fdec| dBAG FD D2|
d2 (3efg fdec| dfaf g2 fg| afge fdec| dBAG FD (3DDD:||:
FAdA FABA| FAdA FE ~E2| ~F3 A BABc| dBAG FD D2|
FAdA FABA| FAde fe ~e2| fedc dBAF|1 GBAG FD D2:|2 GBAG FDD=c||
